X:1
T:Hymnus Eucharisticus
T:Benjamin Rogers (1614-1698)
T:Words by Nathaniel Ingelo
T:Hymnus Eucharisticus
C:Benjamin Rogers (1614-1698)
Z:Words by Nathaniel Ingelo
%%score [ 1 2 3 4 ]
L:1/8
M:3/2
K:C
V:1 treble nm="P1" snm="S."
V:2 treble nm="P2" snm="A."
V:3 treble-8 transpose=-12 nm="P3" snm="T."
V:4 bass nm="P4" snm="B."
V:1
 A4 A4 B4 | (c6 d2) e4 | (d2 c2 B6) A2 | ^G12 | G4 G4 A4 | B8 c4 | d4- Td6 c2 | c12 | c4 c4 c4 | %9
w: Ac- tus in|cru- * cem,|fac- * * tus|est|I- ra- to|De- o|vic- * ti-|ma|per te, Sal-|
w: Te De- um|Pa- * trem|col- * * i-|mus,|Te lau- di-|bus pro-|se- * qui-|mur;|Qui cor- pus|
w: Te a- do-|ra- * mus,|O _ _ Je-|su,|Te, Fi- li|u- ni-|ge- * ni-|te,|Te qui non|
 B8 (c2 B2) | A4 (A6 B2) |{A} ^G12 | A4 B4 c4 | d8 (d2 c2) | (c4 TB6) A2 | A12 |] %16
w: va- tor _|u- ni- *||vi- tae spes|no- bis _|re- * di-|it.|
w: ci- bo _|re- fi- *||cae- les- ti|men- tem _|gra- * ti-|a.|
w: de- dig- *|na- tus _|_|su- bi- re|clau- tra _|Vir- * gi-|nis.|
V:2
 E4 E4 E4 | E8 E4 | F4- TF6 E2 | E12 | E4 E4 E4 | G8 G4 | (F2 E2 D6) E2 | E12 | E4 E4 E4 | D8 E4 | %10
w: Ac- tus in|cru- cem,|fac- * tus|est|I- ra- to|De- o|vic- * * ti-|ma|per te, Sal-|va- tor|
w: Te De- um|Pa- trem|col- * i-|mus,|Te lau- di-|bus pro-|se- * * qui-|mur;|Qui cor- pus|ci- bo|
w: Te a- do-|ra- mus,|O _ Je-|su,|Te, Fi- li|u- ni-|ge- * * ni-|te,|Te qui non|de- dig-|
 E4 (E6 D2) | E12 | C4 D4 E4 | (D6 E2) F4 | E8 (D2 E2) | C12 |] %16
w: u- ni- *|ce|vi- tae spes|no- * bis|re- di- *|it.|
w: re- fi- *|cis|cae- les- ti|men- * tem|gra- ti- *|a.|
w: na- tus _|es|su- bi- re|clau- * tra|Vir- gi- *|nis.|
V:3
 c4 c4 ^G4 | A8 B4 | (A4 d6) c2 | B12 | B4 B4 c4 | d8 e4 | (d2 c2 c6) B2 | c12 | G4 G4 G4 | G8 G4 | %10
w: Ac- tus in|cru- cem,|fac- * tus|est|I- ra- to|De- o|vic- * * ti-|ma|per te, Sal-|va- tor|
w: Te De- um|Pa- trem|col- * i-|mus,|Te lau- di-|bus pro-|se- * * qui-|mur;|Qui cor- pus|ci- bo|
w: Te a- do-|ra- mus,|O _ Je-|su,|Te, Fi- li|u- ni-|ge- * * ni-|te,|Te qui non|de- dig-|
 A4 A8 | B12 | c4 B4 G4 | A8 (B2 A2) | A4- A6 ^G2 | A12 |] %16
w: u- ni-|ce|vi- tae spes|no- bis _|re- * di-|it.|
w: re- fi-|cis|cae- les- ti|men- tem _|gra- * ti-|a.|
w: na- tus|es|su- bi- re|clau- tra _|Vir- * gi-|nis.|
V:4
 A,4 A,4 E,4 | A,8 G,4 | F,4 D,8 | E,12 | E,4 E,4 A,4 | G,8 E,4 | F,4 G,8 | C,12 | C,4 C,4 C,4 | %9
w: Ac- tus in|cru- cem,|fac- tus|est|I- ra- to|De- o|vic- ti-|ma|per te, Sal-|
w: Te De- um|Pa- trem|col- i-|mus,|Te lau- di-|bus pro-|se- qui-|mur;|Qui cor- pus|
w: Te a- do-|ra- mus,|O Je-|su,|Te, Fi- li|u- ni-|ge- ni-|te,|Te qui non|
 G,8 E,4 | F,4 F,8 | E,12 | A,4 G,4 E,4 | (F,6 E,2) D,4 | E,8 E,4 | A,,12 |] %16
w: va- tor|u- ni-|ce|vi- tae spes|no- * bis|re- di-|it.|
w: ci- bo|re- fi-|cis|cae- les- ti|men- * tem|gra- ti-|a.|
w: de- dig-|na- tus|es|su- bi- re|clau- * tra|Vir- gi-|nis.|

